Numix/16/status/indicator-keyboard-Da-1.svg

<?xml version="1.0" encoding="UTF-8" standalone="no"?>
<svg
   xmlns:dc="http://purl.org/dc/elements/1.1/"
   xmlns:cc="http://creativecommons.org/ns#"
   xmlns:rdf="http://www.w3.org/1999/02/22-rdf-syntax-ns#"
   xmlns:svg="http://www.w3.org/2000/svg"
   xmlns="http://www.w3.org/2000/svg"
   xmlns:sodipodi="http://sodipodi.sourceforge.net/DTD/sodipodi-0.dtd"
   xmlns:inkscape="http://www.inkscape.org/namespaces/inkscape"
   viewBox="0 0 16 16"
   id="svg2"
   version="1.1"
   inkscape:version="0.91 r13725"
   sodipodi:docname="indicator-keyboard-Da-1.svg">
  <metadata
     id="metadata14">
    <rdf:RDF>
      <cc:Work
         rdf:about="">
        <dc:format>image/svg+xml</dc:format>
        <dc:type
           rdf:resource="http://purl.org/dc/dcmitype/StillImage" />
      </cc:Work>
    </rdf:RDF>
  </metadata>
  <defs
     id="defs12" />
  <sodipodi:namedview
     pagecolor="#ffffff"
     bordercolor="#666666"
     borderopacity="1"
     objecttolerance="10"
     gridtolerance="10"
     guidetolerance="10"
     inkscape:pageopacity="0"
     inkscape:pageshadow="2"
     inkscape:window-width="459"
     inkscape:window-height="369"
     id="namedview10"
     showgrid="false"
     inkscape:zoom="14.75"
     inkscape:cx="8"
     inkscape:cy="8"
     inkscape:window-x="65"
     inkscape:window-y="24"
     inkscape:window-maximized="0"
     inkscape:current-layer="svg2" />
  <path
     style="fill:#ececec;fill-opacity:1"
     d="M 1.5996094 0 C 0.71320937 2.9605947e-16 0 0.71320937 0 1.5996094 L 0 14.400391 C 2.9605947e-16 15.286791 0.71320937 16 1.5996094 16 L 14.400391 16 C 15.286791 16 16 15.286791 16 14.400391 L 16 1.5996094 C 16 0.71320937 15.286791 0 14.400391 0 L 1.5996094 0 z M 3.4433594 4.8046875 C 3.9473594 4.8046875 4.4100781 4.8719062 4.8300781 5.0039062 C 5.2500781 5.1359063 5.6101562 5.3336562 5.9101562 5.5976562 C 6.2161563 5.8616563 6.4530937 6.1918906 6.6210938 6.5878906 C 6.7890938 6.9838906 6.8730469 7.4446562 6.8730469 7.9726562 C 6.8730469 8.5066563 6.7890938 8.9711875 6.6210938 9.3671875 C 6.4530938 9.7631875 6.2161562 10.093422 5.9101562 10.357422 C 5.6101563 10.621422 5.2500781 10.819172 4.8300781 10.951172 C 4.4100781 11.083172 3.9473594 11.150391 3.4433594 11.150391 C 3.1913594 11.150391 2.9283437 11.135469 2.6523438 11.105469 C 2.3763437 11.081469 2.1338281 11.042281 1.9238281 10.988281 L 1.9238281 4.9765625 C 2.1338281 4.9165625 2.3763437 4.8736094 2.6523438 4.8496094 C 2.9283438 4.8196094 3.1913594 4.8046875 3.4433594 4.8046875 z M 3.515625 5.3359375 C 3.191625 5.3359375 2.9546875 5.3452812 2.8046875 5.3632812 C 2.6606875 5.3812812 2.5711563 5.3924375 2.5351562 5.3984375 L 2.5351562 10.556641 C 2.5711563 10.562641 2.6606875 10.573797 2.8046875 10.591797 C 2.9546875 10.609797 3.191625 10.619141 3.515625 10.619141 C 3.965625 10.619141 4.3593125 10.559453 4.6953125 10.439453 C 5.0313125 10.313453 5.3130156 10.136203 5.5410156 9.9082031 C 5.7690156 9.6802031 5.9406875 9.4040781 6.0546875 9.0800781 C 6.1686875 8.7500781 6.2246094 8.3806562 6.2246094 7.9726562 C 6.2246094 7.5646562 6.1686875 7.199 6.0546875 6.875 C 5.9406875 6.551 5.7690156 6.274875 5.5410156 6.046875 C 5.3130156 5.818875 5.0313125 5.6453906 4.6953125 5.5253906 C 4.3593125 5.3993906 3.965625 5.3359375 3.515625 5.3359375 z M 9.6113281 6.3359375 C 9.9173282 6.3359375 10.174766 6.3807031 10.384766 6.4707031 C 10.600766 6.5547031 10.77425 6.6740781 10.90625 6.8300781 C 11.03825 6.9800781 11.135313 7.1591406 11.195312 7.3691406 C 11.255312 7.5791406 11.285156 7.8086875 11.285156 8.0546875 L 11.285156 10.988281 C 11.225156 11.006281 11.137438 11.026781 11.023438 11.050781 C 10.909437 11.068781 10.776953 11.089281 10.626953 11.113281 C 10.476953 11.137281 10.309047 11.155969 10.123047 11.167969 C 9.9430468 11.185969 9.7584062 11.195313 9.5664062 11.195312 C 9.3204063 11.195312 9.0908594 11.167281 8.8808594 11.113281 C 8.6768594 11.059281 8.4977969 10.975328 8.3417969 10.861328 C 8.1917969 10.741328 8.0724219 10.592109 7.9824219 10.412109 C 7.8984219 10.226109 7.8554687 10.000328 7.8554688 9.7363281 C 7.8554688 9.4843281 7.904 9.2698437 8 9.0898438 C 8.096 8.9098437 8.2302969 8.7624375 8.4042969 8.6484375 C 8.5782969 8.5284375 8.7853906 8.4407187 9.0253906 8.3867188 C 9.2653906 8.3327188 9.5265938 8.3066406 9.8085938 8.3066406 C 9.8925937 8.3066406 9.9803124 8.3122187 10.070312 8.3242188 C 10.166312 8.3302187 10.255844 8.341375 10.339844 8.359375 C 10.429844 8.371375 10.504453 8.3862969 10.564453 8.4042969 C 10.630453 8.4162969 10.675219 8.4294063 10.699219 8.4414062 L 10.699219 8.1523438 C 10.699219 7.9903438 10.688062 7.8355469 10.664062 7.6855469 C 10.640063 7.5295469 10.585953 7.3914844 10.501953 7.2714844 C 10.423953 7.1454844 10.310156 7.0466094 10.160156 6.9746094 C 10.016156 6.8966094 9.8239844 6.8574219 9.5839844 6.8574219 C 9.2419844 6.8574219 8.9863594 6.8816875 8.8183594 6.9296875 C 8.6503594 6.9776875 8.5272188 7.016875 8.4492188 7.046875 L 8.3691406 6.5332031 C 8.4711406 6.4852031 8.6259375 6.4404375 8.8359375 6.3984375 C 9.0519375 6.3564375 9.3113281 6.3359375 9.6113281 6.3359375 z M 9.7910156 8.8105469 C 9.6470156 8.8105469 9.4958438 8.8217031 9.3398438 8.8457031 C 9.1838437 8.8637031 9.0402031 8.9084687 8.9082031 8.9804688 C 8.7762031 9.0464687 8.6679844 9.1397656 8.5839844 9.2597656 C 8.4999844 9.3797656 8.4589844 9.5383281 8.4589844 9.7363281 C 8.4589844 9.9103281 8.4850625 10.057734 8.5390625 10.177734 C 8.5990625 10.297734 8.6812031 10.394797 8.7832031 10.466797 C 8.8912031 10.538797 9.0161563 10.592906 9.1601562 10.628906 C 9.3101562 10.658906 9.4780625 10.673828 9.6640625 10.673828 C 9.8920626 10.673828 10.091766 10.666297 10.259766 10.654297 C 10.433766 10.636297 10.579219 10.615797 10.699219 10.591797 L 10.699219 8.953125 C 10.633219 8.923125 10.528766 8.8932812 10.384766 8.8632812 C 10.240766 8.8272812 10.043016 8.8105469 9.7910156 8.8105469 z M 13.808594 8.8417969 L 14.076172 8.8417969 L 14.076172 12.896484 L 13.697266 12.896484 L 13.697266 9.421875 C 13.654366 9.468675 13.597544 9.5157063 13.527344 9.5664062 C 13.461044 9.6171063 13.384628 9.66805 13.298828 9.71875 C 13.213028 9.76555 13.122897 9.812575 13.029297 9.859375 C 12.935697 9.902275 12.841647 9.9375437 12.748047 9.9648438 L 12.636719 9.671875 C 12.870719 9.5899751 13.080372 9.4880813 13.263672 9.3632812 C 13.446972 9.2345813 13.629194 9.0601969 13.808594 8.8417969 z "
     id="path4" />
</svg>

<svg xmlns="http://www.w3.org/2000/svg" viewBox="0 0 16 16">
 <path d="m 1.6 0 c -0.886 0 -1.6 0.713 -1.6 1.6 l 0 12.801 c 0 0.886 0.713 1.6 1.6 1.6 l 12.801 0 c 0.886 0 1.6 -0.713 1.6 -1.6 l 0 -12.801 c 0 -0.886 -0.713 -1.6 -1.6 -1.6 l -12.801 0 z m 1.844 4.805 c 0.504 0 0.967 0.067 1.387 0.199 c 0.42 0.132 0.78 0.33 1.08 0.594 c 0.306 0.264 0.543 0.594 0.711 0.99 c 0.168 0.396 0.252 0.857 0.252 1.385 c 0 0.534 -0.084 0.999 -0.252 1.395 c -0.168 0.396 -0.405 0.726 -0.711 0.99 c -0.3 0.264 -0.66 0.462 -1.08 0.594 c -0.42 0.132 -0.883 0.199 -1.387 0.199 c -0.252 0 -0.515 -0.015 -0.791 -0.045 c -0.276 -0.024 -0.519 -0.063 -0.729 -0.117 l 0 -6.01 c 0.21 -0.06 0.453 -0.103 0.729 -0.127 c 0.276 -0.03 0.539 -0.045 0.791 -0.045 z m 0.072 0.531 c -0.324 0 -0.561 0.009 -0.711 0.027 c -0.144 0.018 -0.234 0.029 -0.27 0.035 l 0 5.158 c 0.036 0.006 0.126 0.017 0.27 0.035 c 0.15 0.018 0.387 0.027 0.711 0.027 c 0.45 0 0.844 -0.06 1.18 -0.18 c 0.336 -0.126 0.618 -0.303 0.846 -0.531 c 0.228 -0.228 0.4 -0.504 0.514 -0.828 c 0.114 -0.33 0.17 -0.699 0.17 -1.107 c 0 -0.408 -0.056 -0.774 -0.17 -1.098 c -0.114 -0.324 -0.286 -0.6 -0.514 -0.828 c -0.228 -0.228 -0.51 -0.401 -0.846 -0.521 c -0.336 -0.126 -0.73 -0.189 -1.18 -0.189 z m 6.096 1 c 0.306 0 0.563 0.045 0.773 0.135 c 0.216 0.084 0.389 0.203 0.521 0.359 c 0.132 0.15 0.229 0.329 0.289 0.539 c 0.06 0.21 0.09 0.44 0.09 0.686 l 0 2.934 c -0.06 0.018 -0.148 0.038 -0.262 0.063 c -0.114 0.018 -0.246 0.038 -0.396 0.063 c -0.15 0.024 -0.318 0.043 -0.504 0.055 c -0.18 0.018 -0.365 0.027 -0.557 0.027 c -0.246 0 -0.476 -0.028 -0.686 -0.082 c -0.204 -0.054 -0.383 -0.138 -0.539 -0.252 c -0.15 -0.12 -0.269 -0.269 -0.359 -0.449 c -0.084 -0.186 -0.127 -0.412 -0.127 -0.676 c 0 -0.252 0.049 -0.466 0.145 -0.646 c 0.096 -0.18 0.23 -0.327 0.404 -0.441 c 0.174 -0.12 0.381 -0.208 0.621 -0.262 c 0.24 -0.054 0.501 -0.08 0.783 -0.08 c 0.084 0 0.172 0.006 0.262 0.018 c 0.096 0.006 0.186 0.017 0.27 0.035 c 0.09 0.012 0.165 0.027 0.225 0.045 c 0.066 0.012 0.111 0.025 0.135 0.037 l 0 -0.289 c 0 -0.162 -0.011 -0.317 -0.035 -0.467 c -0.024 -0.156 -0.078 -0.294 -0.162 -0.414 c -0.078 -0.126 -0.192 -0.225 -0.342 -0.297 c -0.144 -0.078 -0.336 -0.117 -0.576 -0.117 c -0.342 0 -0.598 0.024 -0.766 0.072 c -0.168 0.048 -0.291 0.087 -0.369 0.117 l -0.08 -0.514 c 0.102 -0.048 0.257 -0.093 0.467 -0.135 c 0.216 -0.042 0.475 -0.063 0.775 -0.063 z m 0.18 2.475 c -0.144 0 -0.295 0.011 -0.451 0.035 c -0.156 0.018 -0.3 0.063 -0.432 0.135 c -0.132 0.066 -0.24 0.159 -0.324 0.279 c -0.084 0.12 -0.125 0.279 -0.125 0.477 c 0 0.174 0.026 0.321 0.08 0.441 c 0.06 0.12 0.142 0.217 0.244 0.289 c 0.108 0.072 0.233 0.126 0.377 0.162 c 0.15 0.03 0.318 0.045 0.504 0.045 c 0.228 0 0.428 -0.008 0.596 -0.02 c 0.174 -0.018 0.319 -0.038 0.439 -0.063 l 0 -1.639 c -0.066 -0.03 -0.17 -0.06 -0.314 -0.09 c -0.144 -0.036 -0.342 -0.053 -0.594 -0.053 z m 4.02 0.031 l 0.268 0 l 0 4.055 l -0.379 0 l 0 -3.475 c -0.043 0.047 -0.1 0.094 -0.17 0.145 c -0.066 0.051 -0.143 0.102 -0.229 0.152 c -0.086 0.047 -0.176 0.094 -0.27 0.141 c -0.094 0.043 -0.188 0.078 -0.281 0.105 l -0.111 -0.293 c 0.234 -0.082 0.444 -0.184 0.627 -0.309 c 0.183 -0.129 0.366 -0.303 0.545 -0.521 z" style="fill:#ececec;fill-opacity:1"/>
</svg>
